web-magabank/image/home/icon-sem-anuidade.svg

<svg width="54" height="53" viewBox="0 0 54 53" fill="none" xmlns="http://www.w3.org/2000/svg">
<circle cx="26.7467" cy="26.4746" r="25.9428" fill="white" stroke="#0181F4"/>
<path fill-rule="evenodd" clip-rule="evenodd" d="M14.5386 16.8709H38.9547C39.671 16.8709 40.2569 17.4568 40.2569 18.173V34.7761C40.2569 35.4923 39.6709 36.0783 38.9547 36.0783H14.5386C13.8223 36.0783 13.2364 35.4923 13.2364 34.7761V18.173C13.2364 17.4568 13.8223 16.8709 14.5386 16.8709ZM14.5385 17.8475C14.3621 17.8475 14.213 17.9966 14.213 18.173V19.8008H39.2802V18.173C39.2802 17.9966 39.1311 17.8475 38.9547 17.8475H14.5385ZM38.9547 35.1016C39.1313 35.1016 39.2803 34.9525 39.2803 34.7761V24.684H14.2131V34.7761C14.2131 34.9525 14.3622 35.1016 14.5386 35.1016H38.9547ZM14.213 23.7074H39.2803L39.2803 20.7775H14.213V23.7074ZM33.2576 28.7469C33.758 28.2481 34.4482 27.9395 35.2109 27.9395C36.7387 27.9395 37.9781 29.1785 37.978 30.7066C37.978 32.2344 36.7387 33.4737 35.2109 33.4737C34.4482 33.4737 33.758 33.1651 33.2576 32.6663C32.757 33.1651 32.0668 33.4737 31.3043 33.4737C29.7759 33.4737 28.5372 32.2344 28.5372 30.7066C28.5372 29.1785 29.7759 27.9395 31.3043 27.9395C32.0667 27.9395 32.757 28.2481 33.2576 28.7469ZM33.9471 31.9747C34.2851 32.3116 34.734 32.4972 35.2109 32.4972C36.1983 32.4972 37.0015 31.6941 37.0015 30.7067C37.0015 29.7192 36.1983 28.9161 35.2109 28.9161C34.734 28.9161 34.285 29.1017 33.9471 29.4387C33.7564 29.6285 33.5074 29.7235 33.2576 29.7235C33.0085 29.7235 32.7589 29.6287 32.5684 29.4387C32.2301 29.1017 31.7808 28.9161 31.3043 28.9161C30.3169 28.9161 29.5138 29.7192 29.5138 30.7067C29.5138 31.6941 30.3169 32.4972 31.3043 32.4972C31.7809 32.4972 32.2302 32.3116 32.5684 31.9747C32.7589 31.7848 33.0083 31.6898 33.2576 31.6898C33.507 31.6898 33.7563 31.7848 33.9471 31.9747ZM23.9795 28.9162H16.1663C15.8967 28.9162 15.678 29.135 15.678 29.4045C15.678 29.674 15.8968 29.8928 16.1663 29.8928H23.9795C24.2491 29.8928 24.4678 29.674 24.4678 29.4045C24.4678 29.1349 24.2491 28.9162 23.9795 28.9162ZM16.1663 31.195H19.748C20.0175 31.195 20.2363 31.4138 20.2363 31.6833C20.2363 31.9528 20.0176 32.1716 19.748 32.1716H16.1663C15.8968 32.1716 15.678 31.9528 15.678 31.6833C15.678 31.4138 15.8967 31.195 16.1663 31.195Z" fill="#0D181D"/>
</svg>

<svg width="54" height="53" fill="none" xmlns="http://www.w3.org/2000/svg"><circle cx="26.747" cy="26.475" r="25.943" fill="#fff" stroke="#0181F4"/><path fill-rule="evenodd" clip-rule="evenodd" d="M14.539 16.87h24.416c.716 0 1.302.587 1.302 1.303v16.603c0 .716-.586 1.302-1.302 1.302H14.539a1.306 1.306 0 01-1.303-1.302V18.173c0-.716.586-1.302 1.303-1.302zm0 .977a.33.33 0 00-.326.326v1.628H39.28v-1.628a.33.33 0 00-.325-.325H14.539zm24.416 17.255a.33.33 0 00.325-.326V24.684H14.213v10.092c0 .176.15.326.326.326h24.416zM14.213 23.707H39.28v-2.93H14.213v2.93zm19.045 5.04a2.767 2.767 0 110 3.92 2.767 2.767 0 110-3.92zm.69 3.228a1.792 1.792 0 003.054-1.268 1.792 1.792 0 00-3.055-1.268.974.974 0 01-1.379 0 1.792 1.792 0 00-3.055 1.268 1.792 1.792 0 003.055 1.268.973.973 0 011.38 0zm-9.968-3.059h-7.814a.488.488 0 000 .977h7.814a.488.488 0 000-.977zm-7.814 2.279h3.582a.489.489 0 010 .977h-3.582a.489.489 0 010-.977z" fill="#0D181D"/></svg>
